X:10
T:Blouse
C:Bruno Scherrer
M:4/4
L:1/8
Q:1/4=120
K:Dmaj
|:"Am7"=c4 "D+"_B3 =B- | "Gmaj7"=B8 | "E∅"d4- "E°7"(3d2_B2=c2 | "D7"_B3 A- A4 | 
"Am7"=c2A2 "E7/G#"d2B2 | "Cmaj7"e3 ^d- "Cm7"(3^d2G2A2 | "Gmaj7"B6 AG |  [1"D7"_BF- F6 | [2 "F#7"BF- F6 | 

